X:1
T:Title
%%score { 1 | 2 }
L:1/8
M:6/4
K:Bb
V:1 treble nm="Grand Piano"
V:2 bass 
V:1
 z6 z4[Q:1/4=117] [DF]2 | [DF]2 [Fd]2 [Ec]2 [DB]2 [EA]2 [DB]2 | [Ec]2 [DB]4- [DB]4 [FA]2 | %3
 G2 G2 G2 [Gc]2 [GB]2 [EG]2 |[M:5/4] [DF]2- [DF]2- [DF]6 |[M:1/4] [DF]2 | %6
[M:6/4] [DF]2 [Fd]2 [Ec]2 [DB]2 [EA]2 [DB]2 | [Ec]2 [DB]4- [DB]4 [Fd]2 | [EG]3 [FA] [GB]2 B3 B A2 | %9
[M:5/4] [DB]2- [DB]2- [DB]6 |[M:1/4] [DB]2 |[M:6/4] B4 G2 G2 A2 B2 | F6- F4 [FB]2 | %13
 [GB]4 [EG]2 [EG]2 [EA]2 [DB]2 |[M:5/4] F2- F2- F6 |[M:1/4] F2 | %16
[M:6/4] [Fd]2 [Ge]2 [Fd]2 [Ec]2 [DB]2 [FA]2 | G6- G4 G2 | F3 B B2 A2 G2 A2 | %19
[M:5/4] [DB]2- [DB]2- [DB]6 |] %20
V:2
 z6 z4 [B,,F,]2 | [B,,F,]2 [B,,F,]2 [B,,F,]2 [B,,F,]2 [C,F,]2 [B,,F,]2 | %2
 [A,,F,]2 [B,,F,]4- [B,,F,]4 [D,B,]2 | [E,B,E]2 [E,B,E]2 [E,B,E]2 [E,B,]2 [E,B,]2 [E,B,]2 | %4
[M:5/4] [B,,B,]2- [B,,B,]2- [B,,B,]6 |[M:1/4] [B,,B,]2 | %6
[M:6/4] [B,,F,]2 [B,,F,]2 [B,,F,]2 [B,,F,]2 [C,F,]2 [B,,F,]2 | %7
 [A,,F,]2 [B,,F,]4- [B,,F,]4 [B,,B,]2 | [E,B,]3 [E,B,] [E,B,]2 [F,DF]3 [F,DF] [F,CE]2 | %9
[M:5/4] [B,,B,]2- [B,,B,]2- [B,,B,]6 |[M:1/4] [B,,B,]2 | %11
[M:6/4] [E,G,E]4 [E,B,E]2 [E,B,E]2 [E,B,F]2 [G,B,E]2 | [B,D]6- [B,D]4 [D,B,]2 | %13
 [E,B,]4 [E,B,]2 [E,B,]2 [C,F,]2 [B,,F,]2 |[M:5/4] [F,A,C]2- [F,A,C]2- [F,A,C]6 |[M:1/4] [F,A,]2 | %16
[M:6/4] [B,,B,]2 [B,,B,]2 [B,,B,]2 [B,,B,]2 [B,,B,]2 [D,B,]2 | [E,B,E]6- [E,B,E]4 [E,B,E]2 | %18
 [F,B,D]3 [F,B,D] [F,B,D]2 [F,CE]2 [F,CE]2 [F,CE]2 |[M:5/4] [B,,B,]2- [B,,B,]2- [B,,B,]6 |] %20

